www/images/icon_navigation.svg

<svg width="59" height="59" viewBox="0 0 59 59" fill="none" xmlns="http://www.w3.org/2000/svg">
<path fill-rule="evenodd" clip-rule="evenodd" d="M39.5229 18.7222C40.0744 19.2874 40.4553 20.1961 40.1815 21.1658L40.0148 21.7561C37.4717 30.7622 34.1034 39.3989 29.9498 47.5611C29.4012 48.6392 28.2748 48.893 27.4103 48.6679C26.5645 48.4476 25.7894 47.7563 25.5679 46.7363L23.5167 37.2935C23.29 36.2499 22.429 35.3869 21.4584 35.1677L12.2722 33.0932C11.2368 32.8594 10.578 32.0455 10.3712 31.2183C10.1635 30.3876 10.3715 29.2524 11.4336 28.6751C19.3552 24.3689 27.7422 20.8688 36.4922 18.2165L37.0653 18.0428C38.057 17.7422 38.9729 18.1585 39.5229 18.7222ZM37.675 20.5527L37.2403 20.6845C28.8487 23.228 20.8013 26.5653 13.1904 30.6568L22.0264 32.6522C24.0073 33.0996 25.6043 34.7557 26.0367 36.7461L27.9875 45.7266C31.9092 37.9138 35.1036 29.6587 37.5331 21.0553L37.675 20.5527Z" fill="#FFC830"/>
</svg>

<svg xmlns="http://www.w3.org/2000/svg" width="59" height="59" fill="#ffc830">
  <path d="M39.52 18.72c.55.57.94 1.48.66 2.45a143.17 143.17 0 0 1-10.23 26.39 2.18 2.18 0 0 1-2.54 1.1 2.55 2.55 0 0 1-1.84-1.92l-2.05-9.45a2.84 2.84 0 0 0-2.06-2.12l-9.19-2.08a2.55 2.55 0 0 1-1.9-1.87c-.2-.83 0-1.97 1.06-2.54a133.37 133.37 0 0 1 25.06-10.46c1.57-.48 2.48-.06 3.03.5Zm-1.85 1.83a131 131 0 0 0-24.48 10.11l8.84 2a5.42 5.42 0 0 1 4 4.09L28 45.73a139.41 139.41 0 0 0 9.54-24.67Z"/>
</svg>
